X: 8939
T: Curragh Races, The
R: reel
M: 4/4
K: Adorian
ga|:eA{d}BA eA{d}BA|GBde dBGg|e2^cA eAcA|dBGB Agfa|
e2^cA eAcA|GBde dBGB|{d}=c2Ac B2GB|1 dBGB Agfg:|2 dBGB A^GAB||
|:c2ec gcec|(3ccc ec dBGB|~c2ec gceg|dBGB A^GAB|
cdef (3gag fg|afge dBGB|~c2Ac B2GB|1 dBGB A^GAB:|2 dBGB Agfa||

